src/images/icons/copy-email.svg

<svg width="101" height="60" viewBox="0 0 101 60" fill="none" xmlns="http://www.w3.org/2000/svg">
<path d="M0.00573252 2.37576C0.0153512 0.663037 1.65694 -0.454233 3.25044 0.179633C5.05234 0.893534 6.8318 1.66186 8.62088 2.41097C23.5459 8.6664 38.4677 14.925 53.3927 21.1805C57.7564 23.0084 62.12 24.8332 66.4805 26.6644C67.8624 27.2438 68.4876 28.4059 68.0868 29.6576C67.8079 30.5284 67.2019 31.0598 66.3106 31.2647C62.4535 32.1643 58.5932 33.0671 54.7361 33.9666C52.4597 34.4981 50.18 35.0295 47.9004 35.5417C47.5766 35.6153 47.4515 35.7722 47.3586 36.0763C46.4352 39.1656 45.4989 42.2517 44.5595 45.3378C44.0048 47.1562 42.251 47.7484 40.7056 46.6376C38.3747 44.9633 36.0438 43.2954 33.7353 41.5923C33.2832 41.2593 32.9465 41.2177 32.4271 41.4546C26.8707 43.9965 21.2983 46.5095 15.7291 49.0258C14.0522 49.7845 12.6479 49.1314 12.1638 47.3611C9.15952 36.3484 6.1617 25.3326 3.16066 14.3136C2.16353 10.648 1.16639 6.97929 0.16925 3.31375C0.0826821 2.99362 -0.0263298 2.67989 0.00573252 2.37576ZM29.5351 37.6034C22.18 29.0462 14.8602 20.5242 7.47625 11.935C7.47625 12.0982 7.46663 12.1495 7.47625 12.1975C10.2977 22.557 13.1256 32.9166 15.9375 43.2794C16.0593 43.7243 16.2261 43.6347 16.5178 43.5035C19.1565 42.303 21.7985 41.1057 24.4372 39.9115C26.1205 39.1464 27.8038 38.3845 29.5351 37.6034ZM18.0857 11.4996C18.0696 11.5284 18.0568 11.5572 18.0408 11.5828C18.1594 11.6789 18.2716 11.7813 18.3967 11.871C27.2363 18.2672 36.0758 24.6603 44.909 31.0598C45.1623 31.2423 45.3899 31.2999 45.6849 31.2295C49.7119 30.2883 53.7422 29.3535 57.7724 28.4155C57.8654 28.3931 57.984 28.3963 58.0032 28.2298C44.6974 22.6563 31.3915 17.0763 18.0857 11.4996ZM15.7547 14.1311C15.7259 14.1567 15.7002 14.1855 15.6714 14.2111C15.806 14.3712 15.9375 14.5313 16.0722 14.6881C21.4747 20.9756 26.8996 27.247 32.2732 33.5601C33.9341 35.5129 35.6334 37.3857 37.8296 38.7655C38.8909 39.4313 39.8752 40.2189 40.9204 40.9712C40.9653 40.8559 40.9942 40.7951 41.0134 40.7343C41.6707 38.567 42.3216 36.3965 42.9949 34.2324C43.0911 33.9218 42.9532 33.8066 42.7416 33.6529C34.8895 27.9769 27.0407 22.2945 19.1918 16.6153C18.044 15.783 16.8994 14.957 15.7547 14.1311Z" fill="black"/>
<path d="M67.3751 60.0002C65.8008 59.9938 63.8867 59.8434 61.995 59.488C61.0235 59.3055 60.4015 58.438 60.5682 57.564C60.7574 56.5844 61.6167 56.0209 62.6298 56.1842C64.8614 56.5428 67.1025 56.706 69.3629 56.562C70.4017 56.4947 71.136 57.0838 71.277 58.0186C71.4117 58.931 70.7929 59.7633 69.8759 59.901C69.1609 60.0098 68.4427 59.9874 67.3751 60.0002Z" fill="#38C545"/>
<path d="M100.874 30.3424C100.646 32.3945 100.213 34.5074 99.5656 36.5754C99.4246 37.0236 99.2867 37.475 99.1104 37.9104C98.7481 38.8068 97.8535 39.2133 96.9718 38.9028C96.1125 38.6019 95.6412 37.6863 95.949 36.7835C96.7185 34.533 97.2507 32.2312 97.5329 29.8686C97.6355 29.0106 98.5012 28.3576 99.3284 28.4472C100.258 28.5464 100.893 29.286 100.874 30.3424Z" fill="#38C545"/>
<path d="M76.9168 58.6333C76.0543 58.6365 75.381 58.0795 75.2239 57.2567C75.0668 56.434 75.5093 55.6496 76.3461 55.3679C77.8691 54.8589 79.3792 54.3243 80.8156 53.6008C81.4536 53.2806 82.082 52.9349 82.7105 52.5956C83.6435 52.0961 84.6406 52.3426 85.1151 53.1974C85.5832 54.0362 85.2915 55.003 84.3937 55.5216C82.1975 56.7957 79.8858 57.8073 77.4522 58.5405C77.2695 58.6013 77.0835 58.6461 76.9168 58.6333Z" fill="#38C545"/>
<path d="M56.849 55.579C56.8361 56.9076 55.6755 57.7367 54.595 57.2949C52.1198 56.2897 49.8273 54.9483 47.708 53.3284C46.9706 52.7618 46.8872 51.7598 47.4323 51.0267C47.9805 50.2904 48.9777 50.1175 49.7664 50.6809C51.4048 51.8558 53.1105 52.9123 54.9381 53.767C55.2715 53.9239 55.6114 54.0616 55.9352 54.2312C56.554 54.5514 56.8361 55.0796 56.849 55.579Z" fill="#38C545"/>
<path d="M95.9393 43.9674C95.965 44.2875 95.84 44.5948 95.654 44.8766C94.2433 47.0375 92.5985 49.0063 90.7228 50.7798C90.0014 51.4617 88.985 51.4361 88.3246 50.751C87.6865 50.0884 87.6673 49.0639 88.3534 48.3948C90.0495 46.7397 91.5596 44.9374 92.8806 42.9686C93.3263 42.3059 94.1182 42.0786 94.8236 42.3283C95.5129 42.578 95.9426 43.1991 95.9393 43.9674Z" fill="#38C545"/>
</svg>

<?xml version="1.0" encoding="UTF-8"?>
<svg id="Layer_1" xmlns="http://www.w3.org/2000/svg" version="1.1" viewBox="0 0 101 60">
  <!-- Generator: Adobe Illustrator 30.2.1, SVG Export Plug-In . SVG Version: 2.1.1 Build 1)  -->
  <defs>
    <style>
      .st0 {
        fill: #38c545;
      }

      .st1 {
        fill: #e3e3e3;
      }
    </style>
  </defs>
  <path class="st1" d="M0,2.38C.02.66,1.66-.45,3.25.18c1.8.71,3.58,1.48,5.37,2.23,14.93,6.26,29.85,12.51,44.77,18.77,4.36,1.83,8.73,3.65,13.09,5.48,1.38.58,2.01,1.74,1.61,2.99-.28.87-.88,1.4-1.78,1.61-3.86.9-7.72,1.8-11.57,2.7-2.28.53-4.56,1.06-6.84,1.58-.32.07-.45.23-.54.53-.92,3.09-1.86,6.18-2.8,9.26-.55,1.82-2.31,2.41-3.85,1.3-2.33-1.67-4.66-3.34-6.97-5.05-.45-.33-.79-.37-1.31-.14-5.56,2.54-11.13,5.05-16.7,7.57-1.68.76-3.08.11-3.57-1.66-3-11.01-6-22.03-9-33.05C2.16,10.65,1.17,6.98.17,3.31.08,2.99-.03,2.68,0,2.38ZM29.54,37.6c-7.36-8.56-14.67-17.08-22.06-25.67,0,.16,0,.21,0,.26,2.82,10.36,5.65,20.72,8.46,31.08.12.44.29.36.58.22,2.64-1.2,5.28-2.4,7.92-3.59,1.68-.77,3.37-1.53,5.1-2.31ZM18.09,11.5s-.03.06-.04.08c.12.1.23.2.36.29,8.84,6.4,17.68,12.79,26.51,19.19.25.18.48.24.78.17,4.03-.94,8.06-1.88,12.09-2.81.09-.02.21-.02.23-.19-13.31-5.57-26.61-11.15-39.92-16.73ZM15.75,14.13s-.05.05-.08.08c.13.16.27.32.4.48,5.4,6.29,10.83,12.56,16.2,18.87,1.66,1.95,3.36,3.83,5.56,5.21,1.06.67,2.05,1.45,3.09,2.21.04-.12.07-.18.09-.24.66-2.17,1.31-4.34,1.98-6.5.1-.31-.04-.43-.25-.58-7.85-5.68-15.7-11.36-23.55-17.04-1.15-.83-2.29-1.66-3.44-2.48Z"/>
  <path class="st0" d="M67.38,60c-1.57,0-3.49-.16-5.38-.51-.97-.18-1.59-1.05-1.43-1.92.19-.98,1.05-1.54,2.06-1.38,2.23.36,4.47.52,6.73.38,1.04-.07,1.77.52,1.91,1.46.13.91-.48,1.74-1.4,1.88-.72.11-1.43.09-2.5.1Z"/>
  <path class="st0" d="M100.87,30.34c-.23,2.05-.66,4.17-1.31,6.23-.14.45-.28.9-.46,1.33-.36.9-1.26,1.3-2.14.99-.86-.3-1.33-1.22-1.02-2.12.77-2.25,1.3-4.55,1.58-6.91.1-.86.97-1.51,1.8-1.42.93.1,1.56.84,1.55,1.9Z"/>
  <path class="st0" d="M76.92,58.63c-.86,0-1.54-.55-1.69-1.38-.16-.82.29-1.61,1.12-1.89,1.52-.51,3.03-1.04,4.47-1.77.64-.32,1.27-.67,1.89-1.01.93-.5,1.93-.25,2.4.6.47.84.18,1.81-.72,2.32-2.2,1.27-4.51,2.29-6.94,3.02-.18.06-.37.11-.54.09Z"/>
  <path class="st0" d="M56.85,55.58c-.01,1.33-1.17,2.16-2.25,1.72-2.48-1.01-4.77-2.35-6.89-3.97-.74-.57-.82-1.57-.28-2.3.55-.74,1.55-.91,2.33-.35,1.64,1.17,3.34,2.23,5.17,3.09.33.16.67.29,1,.46.62.32.9.85.91,1.35Z"/>
  <path class="st0" d="M95.94,43.97c.03.32-.1.63-.29.91-1.41,2.16-3.06,4.13-4.93,5.9-.72.68-1.74.66-2.4-.03-.64-.66-.66-1.69.03-2.36,1.7-1.66,3.21-3.46,4.53-5.43.45-.66,1.24-.89,1.94-.64.69.25,1.12.87,1.12,1.64Z"/>
</svg>
